X:1
T:I Seraillets Have
T:Wilhelm Stenhammar (1871-1927)
T:Text: J P Jacobsen
T:I Seraillets Have
T:©PA Aglert
T:©PA Aglert
T:©PA Aglert
T:©PA Aglert
C:Wilhelm Stenhammar (1871-1927)
Z:©PA Aglert
%%score [ ( 1 2 ) ( 3 4 ) 5 ( 6 7 ) ]
L:1/8
Q:1/4=120
M:4/4
K:Gb
V:1 treble nm="S"
V:2 treble 
V:3 treble nm="A"
V:4 treble 
V:5 treble-8 nm="T"
V:6 bass nm="B"
V:7 bass 
V:1
!p! B2 B2 d2 BA |!<(! G4!<)!!>(! B2!>)! z2 | !>!A3 A G2 A2 | B4 z2 d2 | e2 Bc d2 AB | %5
w: Ro- sen sæn- ker sit|ho- ved|tungt av dug og|duft, og|pin- jer- ne sva- je så|
 G2 A2 B2 z B |!<(! (d4 e2) g2!<)! |!>(! d6!>)! z2 | e4 d2 B2 | G2 AB!<(! c3!<)!!>(! A!>)! | %10
w: tyst og mat i|lum- * re|luft.|Kil- der- ne|væl- te det tu- nge|
 F2 F2!<(! B3 G!<)! |!>(! E4!>)! z2 [Ge][Ae] |!<(! [Bg]2 [Bf][Bd] [Be]2!<)!!>(! [GB][GB]!>)! | %13
w: sölv i dö- sig|ro, mi- na-|re- ter- ne pe- ge mod|
"^dim." ([Ac]2 [ce])[ef]!pp! [ea]4- | [ea]2 [cg]2 [cf]3 [Ae] | [Ae]4 z2!pp! d2 | g2 cd e2 AB | %17
w: him- * len up|_ i tyr- ke-|tro, og|halv- må- nen dri- ver så|
 c2 B2 A2 z2 | B2 GA!<(! (B d2)!<)!!>(! c!>)! | B4 z2 GA | B2 B2 d2 BA | G2 G2 B2 z2 | %22
w: jævnt af- sted|o- ver det jæv- * ne|blå og den|kys- ser ro- sers og|lil- jers flok,|
 A2 AB"^rit." G2!<(! A2!<)! |!>(! B4!>)! z2!pp! B"^sost"G | B2 G2 B4 | G2 z2 z2!ppp! BG | %26
w: al- le de blom- ster|små i se-|rail- lets ha-|ve i se-|
 B2 G2 B4- |"^rit." B4 G2 z2 |] %28
w: rail- lets ha-|* ve.|
V:2
 x8 | x8 | x8 | x8 | x8 | x8 | x8 | x8 | x8 | x8 | x8 | x8 | x8 | x8 | x8 | x8 | x8 | x8 | %18
 B2 GA B3 A | x8 | x8 | x8 | x8 | x8 | x8 | x8 | x8 | x8 |] %28
V:3
!p! G2 G2 F2 FF |!<(! E4!<)!!>(! F2!>)! z2 | !>!E3 F G2 [DF]2 | [DG]4 z2 G2 | G2 GG F2 EF | %5
w: Ro- sen sæn- ker sit|ho- ved|tungt av dug og|duft, og|pin- jer- ne sva- je så|
 G3 F (EFG)G |!<(! (A4 c2) (cB)!<)! |!>(! (A4 B2)!>)! z2 | c4 B2 F2 | %9
w: tyst og mat _ _ i|lum- * re _|luft. _|Kil- der- ne|
 E2 FG!<(! G2!<)!!>(! (FE)!>)! | =D2 _D2!<(! D3 B,!<)! |!>(! C4!>)! z2 [CE][CE] | %12
w: væl- te det tu- nge _|sölv i dö- sig|ro, mi- na-|
!<(! E2 DF G2!<)!!>(! EE!>)! |"^dim." ([A,E]2 A)[Ac]!pp! [Fc]4- | [Fc]2 [EA]2 [DA]3 [CF] | %15
w: re- ter- ne pe- ge mod|him- * len up|_ i tyr- ke-|
 [CF]4 z2!pp! F2 | G2 F2 E2 D2 | C2 D2 E2 z2 | D2 B,=C!<(! (=D!<)! E2)!>(! E!>)! | F4 z2 EF | %20
w: tro, og|må- nen dri- ver|jævnt af- sted|o- ver det jæv- * ne|blå og den|
 G2 G2 F2 FF | E2 E2 F2 z2 | E2 FF"^rit." F!<(!E/D/ C[CF]!<)! |!>(! [B,G]4!>)! z2!pp! G"^sost"=C | %24
w: kys- ser ro- sers og|lil- jers flok,|al- le de blom- * * * ster|små i se-|
 G2 =C2 G4 | =C2 z2 z2!ppp! FE | F2 E2 F4- |"^rit." (F2 E2) D2 z2 |] %28
w: rail- lets ha-|ve i se-|rail- lets ha-|* * ve.|
V:4
 x8 | x8 | x8 | x8 | x8 | x8 | x8 | x8 | x8 | x8 | x8 | x8 | (G,A,)B,B, E2 EE | x8 | x8 | x8 | x8 | %17
 x8 | x8 | x8 | x8 | x8 | x8 | x8 | x8 | x8 | x8 | x8 |] %28
V:5
!p! d2 d2 B2 dc |!<(! B4!<)!!>(! d2!>)! z2 | !>!c3 c B2 c2 | B4 z2 B2 | c2 GA B2 cc | B2 c2 B3 e | %6
w: Ro- sen sæn- ker sit|ho- ved|tungt av dug og|duft, og|pin- jer- ne sva- je så|tyst og mat i|
!<(! (f4 g2) e2!<)! |!>(! [df]6!>)! z2 | g4 f2 d2 | %9
w: lum- * re|luft.|Kil- der- ne|
!<(! (3(Bcd)!<)!!>(! cB!>)!!<(! (B2!<)! A)!>(!G!>)! | F2 c2!<(! (Bgf)!<)!_f |!>(! e4!>)! z4 | z8 | %13
w: væl- * * te det tu- * nge|sölv i dö- * * sig|ro,||
 z8 | z8 | z4 z2!pp! d2 | d2 c2 B2 A2 | G2 G2 G2 z2 | F2 GG!<(! (F!<)! d2)!>(! c!>)! | c4 z2 Bc | %20
w: ||og|må- nen dri- ver|jævnt af- sted|o- ver det jæv- * ne|blå og den|
 B2 d2 B2 dc | B2 c2 d2 z2 | c2 cc"^rit." (B!<(!g- g/f/)(e/!<)!d/) |!>(! =c4!>)! z2!pp! c"^sost"B | %24
w: kys- ser ro- sers og|lil- jers flok,|al- le de blom- * * * ster _|små i se-|
 =c2 B2 c4 | B2 z2 z2!ppp! !courtesy!_cB | c2 B2 c4- |"^rit." c4 B2 z2 |] %28
w: rail- lets ha-|ve i se-|rail- lets ha-|* ve.|
V:6
!p! G,2 G,2 D,2 D,D, |!<(! E,4!<)!!>(! B,,2!>)! z2 | !>!C,3 D, E,2 D,2 | [G,,D,]4 z2 G,2 | %4
w: Ro- sen sæn- ker sit|ho- ved|tungt av dug og|duft, og|
 C,2 E,E, B,,2 D,D, | E,2 A,2 (G,F,E,)E |!<(! (D4 C2) C2!<)! |!>(! (C4 B,2)!>)! z2 | A,4 D,2 D,2 | %9
w: pin- jer- ne sva- je så|tyst og mat _ _ i|lum- * re|luft. _|Kil- der- ne|
 E,2 E,E,!<(! A,,3!<)!!>(! A,,!>)! | B,,2 D,2!<(! (D,B,A,)!<)!G, |!>(! [C,G,]4!>)! z4 | z8 | z8 | %14
w: væl- te det tu- nge|sölv i dö- * * sig|ro,|||
 z8 | z4 z2!pp! C2 | B,2 A,2 G,2 F,2 | E,2 D,2 C,2 z2 | %18
w: |og|må- nen dri- ver|jævnt af- sted|
 D,2 E,E,!<(! (B,,!<)! [=G,,E,]2)!>(! [A,,E,]!>)! | D,4 z2 E,D, | [G,,D,]2 [G,,G,]2 D,2 D,D, | %21
w: o- ver det jæv- * ne|blå og den|kys- ser ro- sers og|
 E,2 C,2 B,,2 z2 | C,2 D,D,"^rit." E,2!<(! D,2!<)! |!>(! [A,,E,]8-!>)! | [A,,E,]8- | %25
w: lil- jers flok,|al- le de blom- ster|små|_|
 [A,,E,]2 z2 z2!ppp! D,E, | D,2 E,2 D,4- |"^rit." D,4 [G,,D,]2 z2 |] %28
w: * i se-|rail- lets ha-|* ve.|
V:7
 x8 | x8 | x8 | x8 | x8 | x8 | x8 | x8 | x8 | x8 | B,,2 A,,2 G,,3 G,, | x8 | x8 | x8 | x8 | x8 | %16
 x8 | x8 | x8 | x8 | x8 | x8 | x8 | x8 | x8 | x8 | x8 | x8 |] %28

